src/images/avatars/avatar-14.svg

<svg fill="none" height="77" viewBox="0 0 45 77" width="45" xmlns="http://www.w3.org/2000/svg"><path d="m2.50003 27.4c-.5-10.7 2.8-26.4 19.49997-26.4 17 0 20.7 16.4 20.2 26.6-.7 13.1-39.39997 7.3-39.69997-.2z" fill="#e6845c" stroke="#4d4d4d" stroke-linejoin="round" stroke-miterlimit="10" stroke-width="2"/><path d="m27.4 57.2v-14.5h-10.2v14.5c0 1.1-.9 2-2 2h-1.7c0 3.4 4.7 12.8 8.8 12.8s8.8-9.4 8.8-12.8h-1.6c-1.2 0-2.1-.9-2.1-2z" fill="#fcc5af" stroke="#4d4d4d" stroke-linejoin="round" stroke-miterlimit="10" stroke-width="2"/><path d="m26.4 59.6001c-1.5 0-7.8-7.1001-7.8-7.8001.1-1.5-.1-.9-.1-.9l7.9.2s.1 8.4001 0 8.5001z" fill="#f99f7a" opacity=".5"/><g stroke-linejoin="round" stroke-miterlimit="10" stroke-width="2"><path d="m4.89998 36.2c2.1539 0 3.89998-1.7461 3.89998-3.9s-1.74608-3.9-3.89998-3.9-3.89998 1.7461-3.89998 3.9 1.74608 3.9 3.89998 3.9z" fill="#fcc5af" stroke="#4d4d4d"/><path d="m39.6999 36.2c2.1539 0 3.9-1.7461 3.9-3.9s-1.7461-3.9-3.9-3.9-3.9 1.7461-3.9 3.9 1.7461 3.9 3.9 3.9z" fill="#fcc5af" stroke="#4d4d4d"/><path d="m25.5999 8.20001c-4.1001-.6-4.6001-2.8-6.8001-2.7-7.5.1-14 4.3-14 27.39999 0 12.5 9.3 19 17 19 8.8001 0 18.0001-6.5 18.0001-20.7 0-12.6-1.9-19.6-7.2-23.19999-1.5-1.2-3 .7-7 .2z" fill="#fcc5af" stroke="#4d4d4d"/><path d="m27.4997 13.8c-2.7.4-6.1.2-8.2-.6" opacity=".0324" stroke="#bd9483" stroke-linecap="round"/><path d="m29.3003 17.4999c-4.9001.8-10.2001.4-13.6001-1.1999" opacity=".0324" stroke="#bd9483" stroke-linecap="round"/><path d="m27.8999 23.1001s2.4-1.4 4.8-.6" stroke="#4d4d4d" stroke-linecap="round"/><path d="m16.6999 23.1001s-2.4-1.4-4.8-.6" stroke="#4d4d4d" stroke-linecap="round"/><path d="m21.1001 37v1.7c0 .7.5 1.3 1.2 1.3h1.5" stroke="#4d4d4d" stroke-linecap="round"/><path d="m20.2002 46c1.5.7001 2.8.7001 4.2 0" stroke="#4d4d4d" stroke-linecap="round"/><path d="m35.6 30.3 4.4999-2.5" stroke="#4d4d4d"/><path d="m4.5 27.8 3.89996 1.7" stroke="#4d4d4d"/><path d="m14.2 35.3c-3 0-5.7-.9-5.7-5.1 0-2.1 1.2-4 5.5-4 4.9 0 6.2 1.8 6.2 4 0 2.9-3 5.1-6 5.1z" fill="#fee8df" fill-opacity=".9" stroke="#4d4d4d"/><path d="m30.4001 35.3c3 0 5.7-.9 5.7-5.1 0-2.1-1.2-4-5.5-4-4.9 0-6.2 1.8-6.2 4 0 2.9 3 5.1 6 5.1z" fill="#fee8df" fill-opacity=".9" stroke="#4d4d4d"/><path d="m19.6 29c1.9.7 3.6999.8 5.2999 0" stroke="#4d4d4d"/></g><path d="m14.7002 31.7c.8284 0 1.5-.6716 1.5-1.5 0-.8285-.6716-1.5-1.5-1.5s-1.5.6715-1.5 1.5c0 .8284.6716 1.5 1.5 1.5z" fill="#4d4d4d"/><path d="m29.8001 31.7c.8284 0 1.5-.6716 1.5-1.5 0-.8285-.6716-1.5-1.5-1.5-.8285 0-1.5001.6715-1.5001 1.5 0 .8284.6716 1.5 1.5001 1.5z" fill="#4d4d4d"/><path d="m42.6 65.9c0-4.4-3.6-8-8-8l-7.9 1.3s-4.4 3.6-4.4 15.4c0-11.7-4.7-15.4-4.7-15.4l-7.6-1.3c-4.4 0-8 3.6-8 8v1.3c5.30001 4.9 12.4 7.8 20.2 7.8 7.9 0 15-3 20.4-8z" fill="#5c5c5c"/><path d="m42.6 65.9c0-4.4-3.6-8-8-8l-7.9 1.3s-4.4 3.6-4.4 15.4c0-11.7-4.7-15.4-4.7-15.4l-7.6-1.3c-4.4 0-8 3.6-8 8v1.3c5.30001 4.9 12.4 7.8 20.2 7.8 7.9 0 15-3 20.4-8z" fill="#fff"/><path d="m42.6 65.9c0-4.4-3.6-8-8-8l-7.9 1.3s-4.4 3.6-4.4 15.4c0-11.7-4.7-15.4-4.7-15.4l-7.6-1.3c-4.4 0-8 3.6-8 8v1.3c5.30001 4.9 12.4 7.8 20.2 7.8 7.9 0 15-3 20.4-8z" stroke="#4d4d4d" stroke-linejoin="round" stroke-miterlimit="10" stroke-width="2"/><path d="m34.5997 57.9-2.6.4-3.7 16.1c3.6-.7 6.9-2.1 9.8-4 .1-.1.3-.2.4-.3.2-.1.3-.2.5-.3s.4-.3.6-.4c1.1-.8 2.1-1.6 3-2.4v-1.1c0-4.4-3.6-8-8-8z" fill="#5c5c5c" stroke="#4d4d4d" stroke-linejoin="round" stroke-miterlimit="10" stroke-width="2"/><path d="m10 57.9 2.6.4 3.7 16.1c-3.6-.7-6.89997-2.1-9.79998-4-.1-.1-.30001-.2-.40001-.3-.2-.1-.3-.2-.5-.3s-.4-.3-.6-.4c-1-.7-2.10001-1.5-3.00001-2.4v-1.1c0-4.4 3.60001-8 8-8z" fill="#5c5c5c" stroke="#4d4d4d" stroke-linejoin="round" stroke-miterlimit="10" stroke-width="2"/><path d="m19.5 75c.9.1 1.8.1 2.7.1 1 0 2-.1 3.1-.2l-1-11.3h-3.6z" fill="#99d9e1"/><path d="m19.5 75c.9.1 1.8.1 2.7.1 1 0 2-.1 3.1-.2l-1-11.3h-3.6z" stroke="#4d4d4d" stroke-linejoin="round" stroke-miterlimit="10" stroke-width="2"/><path d="m24.2001 65.5h-3.5c-.3 0-.5-.2-.6-.5l-1.4001-4.4c-.1-.3.2-.7.6-.7h6.3001c.4 0 .6.3.6.7l-1.5 4.4c0 .3-.3.5-.5.5z" fill="#99d9e1" stroke="#4d4d4d" stroke-linejoin="round" stroke-miterlimit="10" stroke-width="2"/><path d="m17.4999 52.2s-.2 4 1.3 7.1c0 0-4.5 2.7001-5.8 6.6001-3.3-4.6-1.9-12.2001 4.5-13.7001z" fill="#fff" stroke="#4d4d4d" stroke-linejoin="round" stroke-miterlimit="10" stroke-width="2"/><path d="m27.0998 52.2s.2 4-1.3 7.1c0 0 4.5 2.7001 5.8 6.6001 3.3-4.6 1.9-12.2001-4.5-13.7001z" fill="#fff" stroke="#4d4d4d" stroke-linejoin="round" stroke-miterlimit="10" stroke-width="2"/><path d="m8.3999 66.7v4.3" stroke="#4d4d4d" stroke-linecap="round" stroke-linejoin="round" stroke-miterlimit="10" stroke-width="2"/><path d="m36.2998 66.7v4.3" stroke="#4d4d4d" stroke-linecap="round" stroke-linejoin="round" stroke-miterlimit="10" stroke-width="2"/></svg>

<svg width="45" height="77" viewBox="0 0 45 77" fill="none" xmlns="http://www.w3.org/2000/svg">
<path d="M2.50003 27.4C2.00003 16.7 5.30003 1 22 1C39 1 42.7 17.4 42.2 27.6C41.5 40.7 2.80003 34.9 2.50003 27.4Z" fill="#E6845C" stroke="#4D4D4D" stroke-width="2" stroke-miterlimit="10" stroke-linejoin="round"/>
<path d="M27.4 57.2V42.7H17.2V57.2C17.2 58.3 16.3 59.2 15.2 59.2H13.5C13.5 62.6 18.2 72 22.3 72C26.4 72 31.1 62.6 31.1 59.2H29.5C28.3 59.2 27.4 58.3 27.4 57.2Z" fill="#FCC5AF" stroke="#4D4D4D" stroke-width="2" stroke-miterlimit="10" stroke-linejoin="round"/>
<path opacity="0.5" d="M26.4 59.6001C24.9 59.6001 18.6 52.5 18.6 51.8C18.7 50.3 18.5 50.9 18.5 50.9L26.4 51.1C26.4 51.1 26.5 59.5001 26.4 59.6001Z" fill="#F99F7A"/>
<path d="M4.89998 36.2C7.05388 36.2 8.79996 34.4539 8.79996 32.3C8.79996 30.1461 7.05388 28.4 4.89998 28.4C2.74608 28.4 1 30.1461 1 32.3C1 34.4539 2.74608 36.2 4.89998 36.2Z" fill="#FCC5AF" stroke="#4D4D4D" stroke-width="2" stroke-miterlimit="10" stroke-linejoin="round"/>
<path d="M39.6999 36.2C41.8538 36.2 43.5999 34.4539 43.5999 32.3C43.5999 30.1461 41.8538 28.4 39.6999 28.4C37.546 28.4 35.7999 30.1461 35.7999 32.3C35.7999 34.4539 37.546 36.2 39.6999 36.2Z" fill="#FCC5AF" stroke="#4D4D4D" stroke-width="2" stroke-miterlimit="10" stroke-linejoin="round"/>
<path d="M25.5999 8.20001C21.4998 7.60001 20.9998 5.40001 18.7998 5.50001C11.2998 5.60001 4.7998 9.80001 4.7998 32.9C4.7998 45.4 14.0998 51.9 21.7998 51.9C30.5999 51.9 39.7999 45.4 39.7999 31.2C39.7999 18.6 37.8999 11.6 32.5999 8.00001C31.0999 6.80001 29.5999 8.70001 25.5999 8.20001Z" fill="#FCC5AF" stroke="#4D4D4D" stroke-width="2" stroke-miterlimit="10" stroke-linejoin="round"/>
<g opacity="0.18">
<path opacity="0.18" d="M27.4997 13.8C24.7997 14.2 21.3997 14 19.2997 13.2" stroke="#BD9483" stroke-width="2" stroke-miterlimit="10" stroke-linecap="round" stroke-linejoin="round"/>
</g>
<g opacity="0.18">
<path opacity="0.18" d="M29.3003 17.4999C24.4002 18.2999 19.1002 17.8999 15.7002 16.3" stroke="#BD9483" stroke-width="2" stroke-miterlimit="10" stroke-linecap="round" stroke-linejoin="round"/>
</g>
<path d="M27.8999 23.1001C27.8999 23.1001 30.2999 21.7001 32.6999 22.5001" stroke="#4D4D4D" stroke-width="2" stroke-miterlimit="10" stroke-linecap="round" stroke-linejoin="round"/>
<path d="M16.6999 23.1001C16.6999 23.1001 14.2999 21.7001 11.8999 22.5001" stroke="#4D4D4D" stroke-width="2" stroke-miterlimit="10" stroke-linecap="round" stroke-linejoin="round"/>
<path d="M21.1001 37V38.7C21.1001 39.4 21.6001 40 22.3001 40H23.8001" stroke="#4D4D4D" stroke-width="2" stroke-miterlimit="10" stroke-linecap="round" stroke-linejoin="round"/>
<path d="M20.2002 46C21.7002 46.7001 23.0002 46.7001 24.4002 46" stroke="#4D4D4D" stroke-width="2" stroke-miterlimit="10" stroke-linecap="round" stroke-linejoin="round"/>
<path d="M35.6 30.3L40.0999 27.8" stroke="#4D4D4D" stroke-width="2" stroke-miterlimit="10" stroke-linejoin="round"/>
<path d="M4.5 27.8L8.39996 29.5" stroke="#4D4D4D" stroke-width="2" stroke-miterlimit="10" stroke-linejoin="round"/>
<path d="M14.2 35.3C11.2 35.3 8.5 34.4 8.5 30.2C8.5 28.1 9.7 26.2 14 26.2C18.9 26.2 20.2 28 20.2 30.2C20.2 33.1 17.2 35.3 14.2 35.3Z" fill="#FEE8DF" fill-opacity="0.9" stroke="#4D4D4D" stroke-width="2" stroke-miterlimit="10" stroke-linejoin="round"/>
<path d="M30.4001 35.3C33.4001 35.3 36.1001 34.4 36.1001 30.2C36.1001 28.1 34.9001 26.2 30.6001 26.2C25.7001 26.2 24.4001 28 24.4001 30.2C24.4001 33.1 27.4001 35.3 30.4001 35.3Z" fill="#FEE8DF" fill-opacity="0.9" stroke="#4D4D4D" stroke-width="2" stroke-miterlimit="10" stroke-linejoin="round"/>
<path d="M19.6 29C21.5 29.7 23.2999 29.8 24.8999 29" stroke="#4D4D4D" stroke-width="2" stroke-miterlimit="10" stroke-linejoin="round"/>
<path d="M14.7002 31.7C15.5286 31.7 16.2002 31.0284 16.2002 30.2C16.2002 29.3715 15.5286 28.7 14.7002 28.7C13.8718 28.7 13.2002 29.3715 13.2002 30.2C13.2002 31.0284 13.8718 31.7 14.7002 31.7Z" fill="#4D4D4D"/>
<path d="M29.8001 31.7C30.6285 31.7 31.3001 31.0284 31.3001 30.2C31.3001 29.3715 30.6285 28.7 29.8001 28.7C28.9716 28.7 28.3 29.3715 28.3 30.2C28.3 31.0284 28.9716 31.7 29.8001 31.7Z" fill="#4D4D4D"/>
<path d="M42.6 65.9C42.6 61.5 39 57.9 34.6 57.9L26.7 59.2C26.7 59.2 22.3 62.8 22.3 74.6C22.3 62.9 17.6 59.2 17.6 59.2L10 57.9C5.6 57.9 2 61.5 2 65.9V67.2C7.30001 72.1 14.4 75 22.2 75C30.1 75 37.2 72 42.6 67V65.9Z" fill="#5C5C5C"/>
<path d="M42.6 65.9C42.6 61.5 39 57.9 34.6 57.9L26.7 59.2C26.7 59.2 22.3 62.8 22.3 74.6C22.3 62.9 17.6 59.2 17.6 59.2L10 57.9C5.6 57.9 2 61.5 2 65.9V67.2C7.30001 72.1 14.4 75 22.2 75C30.1 75 37.2 72 42.6 67V65.9Z" fill="white"/>
<path d="M42.6 65.9C42.6 61.5 39 57.9 34.6 57.9L26.7 59.2C26.7 59.2 22.3 62.8 22.3 74.6C22.3 62.9 17.6 59.2 17.6 59.2L10 57.9C5.6 57.9 2 61.5 2 65.9V67.2C7.30001 72.1 14.4 75 22.2 75C30.1 75 37.2 72 42.6 67V65.9V65.9Z" stroke="#4D4D4D" stroke-width="2" stroke-miterlimit="10" stroke-linejoin="round"/>
<path d="M34.5997 57.9L31.9997 58.3L28.2997 74.4C31.8997 73.7 35.1997 72.3 38.0997 70.4C38.1997 70.3 38.3997 70.2 38.4997 70.1C38.6997 70 38.7997 69.9 38.9997 69.8C39.1997 69.7 39.3997 69.5 39.5997 69.4C40.6997 68.6 41.6997 67.8 42.5997 67V65.9C42.5997 61.5 38.9997 57.9 34.5997 57.9Z" fill="#5C5C5C" stroke="#4D4D4D" stroke-width="2" stroke-miterlimit="10" stroke-linejoin="round"/>
<path d="M10 57.9L12.6 58.3L16.3 74.4C12.7 73.7 9.40003 72.3 6.50002 70.4C6.40002 70.3 6.20001 70.2 6.10001 70.1C5.90001 70 5.80001 69.9 5.60001 69.8C5.40001 69.7 5.20001 69.5 5.00001 69.4C4.00001 68.7 2.9 67.9 2 67V65.9C2 61.5 5.60001 57.9 10 57.9Z" fill="#5C5C5C" stroke="#4D4D4D" stroke-width="2" stroke-miterlimit="10" stroke-linejoin="round"/>
<path d="M19.5 75C20.4 75.1 21.3 75.1 22.2 75.1C23.2 75.1 24.2 75 25.3 74.9L24.3 63.6H20.7L19.5 75Z" fill="#99D9E1"/>
<path d="M19.5 75C20.4 75.1 21.3 75.1 22.2 75.1C23.2 75.1 24.2 75 25.3 74.9L24.3 63.6H20.7L19.5 75Z" stroke="#4D4D4D" stroke-width="2" stroke-miterlimit="10" stroke-linejoin="round"/>
<path d="M24.2001 65.5H20.7001C20.4001 65.5 20.2001 65.3 20.1001 65L18.7 60.6C18.6 60.3 18.9 59.9 19.3 59.9H25.6001C26.0001 59.9 26.2001 60.2 26.2001 60.6L24.7001 65C24.7001 65.3 24.4001 65.5 24.2001 65.5Z" fill="#99D9E1" stroke="#4D4D4D" stroke-width="2" stroke-miterlimit="10" stroke-linejoin="round"/>
<path d="M17.4999 52.2C17.4999 52.2 17.2999 56.2 18.7999 59.3C18.7999 59.3 14.2999 62.0001 12.9999 65.9001C9.6999 61.3001 11.0999 53.7 17.4999 52.2Z" fill="white" stroke="#4D4D4D" stroke-width="2" stroke-miterlimit="10" stroke-linejoin="round"/>
<path d="M27.0998 52.2C27.0998 52.2 27.2998 56.2 25.7998 59.3C25.7998 59.3 30.2998 62.0001 31.5998 65.9001C34.8998 61.3001 33.4998 53.7 27.0998 52.2Z" fill="white" stroke="#4D4D4D" stroke-width="2" stroke-miterlimit="10" stroke-linejoin="round"/>
<path d="M8.3999 66.7V71" stroke="#4D4D4D" stroke-width="2" stroke-miterlimit="10" stroke-linecap="round" stroke-linejoin="round"/>
<path d="M36.2998 66.7V71" stroke="#4D4D4D" stroke-width="2" stroke-miterlimit="10" stroke-linecap="round" stroke-linejoin="round"/>
</svg>
